X:1
T:Title
%%score { ( 1 2 ) | ( 3 4 ) }
L:1/8
M:3/4
K:F
V:1 treble nm="Grand Piano"
V:2 treble 
V:3 bass 
V:4 bass 
V:1
 z2 z2[Q:1/4=114] z G | A4 A2 | [Ac]4 [GB][FA] | [EG]4 [EG]2 | [EB]4 E-[EG] | [A,F]4 [A,F]2 | %6
 [CEG]4 [A,F][EG] | [FA]2 [GB]2 [CFA]2 |[M:2/4] [CEG]4 |[M:1/4] [Fc]2 |[M:3/4] d3 c [Fd]2 | %11
 f2 e2 [Fd]2 | c2 d2 c2 | A4 AG | [A,F]4 [A,F]2 | [CEG]4 [CA]G | F4 F2 |[M:2/4] F4 |] %18
V:2
 z2 z2 F2 | x6 | x6 | x6 | z2 z2 .[CA]2 | x6 | x6 | C4 z2 |[M:2/4] x4 |[M:1/4] x2 |[M:3/4] F4 z2 | %11
 x6 | x6 | x6 | x6 | x6 | x6 |[M:2/4] x4 |] %18
V:3
 z2 z2 A,B, | [F,CF]4 [F,CF]2 | [F,C]4 [F,C]2 | [C,C]4 [C,C]2 | [C,C]4 z B, | F,4 F,2 | C,4 z C | %7
 F,2 E,2 F,2 |[M:2/4] C,4 |[M:1/4] [F,A,]2 |[M:3/4] B,3 A, [B,,B,]2 | D2 C2 [B,,B,]2 | %12
 [F,F]2- [F,B,F]2 [F,A,F]2 | [F,CF]4 CB, | F,4 F,2 | C,4 z B, | [F,A,C]4 [F,B,D]2 | %17
[M:2/4] [F,A,C]4 |] %18
V:4
 z2 z2 F,2 | x6 | x6 | x6 | z2 z2 C,2 | x6 | z2 z2 C,2 | x6 |[M:2/4] x4 |[M:1/4] x2 | %10
[M:3/4] B,,4 z2 | [B,,F]4 z2 | A,2 z2 z2 | z2 z2 F,2 | x6 | z2 z2 C,2 | x6 |[M:2/4] x4 |] %18

